X:1
T:Herring Croon
M:4/4
L:1/4
K:D
 z D F G| A2 G/2 F3/2| E D3| z D F G| A2 G F| E4| z4| D D D2| =c B A2|\
 F F G A| A4| B3/2 B/2 d d| c B A2| F3/2 B/2 A F| E4| B B B c| d A A2|\
 F3/2 B/2 A F|
M:2/4
 G F|
M:4/4
 E3 z| z4| A/2 A3/2 D2| =c/2 B3/2 A2| F A G/2 E3/2| D4|
